!!!!SEGMENT: pl-wtm--r-1542--001_stefani-jozef--msza-in-es-no-3-kyrie.krn
!!!cenid: 18xx:1777
!!!COM: Stefani, Józef
!!!COM-rismID: pe30024097
!!!CDT: 1800/04/16-1876/03/19
!!!CNT: Polish
!!!OPR: Msza in Es No 3
!!!OTL: Kyrie
!!!OMV: 001
!!!PDT:
!!!AGN: Sacred; Mass
!!!SMS-siglum: PL-Wtm
!!!SMS-shelfmark: R 1542
!!!SMS-shelfwork: 001-001 M
!!!SMS-variant:
!!!SMS-altvar:
!!!NIFC-rismSourceID: 1001120488
!!!NIFC-rismChildID: 1001120488
!!!NIFC-islandoraID: pl-wtm:26423
!!!URL-pdf-islandora: https://repozytorium.nifc.pl/islandora/object/pl-wtm%3A26423/datastream/PDF/view
!!!URL-scan: https://polish.musicsources.pl/pl/lokalizacje/galeria/rekopisy/6343 @EN{Scan on Polish Music Sources Website} @PL{Skany w portalu Dziedzictwo Muzyki Polskiej w otwartym dostępie}
!!!ONB-nifc: UWAGA: części Mszy: 1. Kyrie, 2. Gloria, 3. Graduale, 4. Credo, 5. Offertorium, 6. Sanctus, 7. Benedictus, 8. Agnus Dei
!!!OMD: Andantino.
!!!AIN: 1 alto 1 cello 1 clars 1 cor 2 empty 1 fagot 1 soprn 1 tenor 1 viola 2 violn
!!!key:
**kern	**dynam	**kern	**dynam	**kern	**text	**dynam	**kern	**text	**dynam	**kern	**dynam	**kern	**text	**dynam	**kern	**dynam	**kern	**dynam	**kern	**dynam	**kern	**dynam	**kern	**dynam	**kern	**dynam
*part12	*part12	*part11	*part11	*part10	*part10	*part10	*part9	*part9	*part9	*part8	*part8	*part7	*part7	*part7	*part6	*part6	*part5	*part5	*part4	*part4	*part3	*part3	*part2	*part2	*part1	*part1
*staff12	*	*staff11	*	*staff10	*staff10	*	*staff9	*staff9	*	*staff8	*	*staff7	*staff7	*	*staff6	*	*staff5	*	*staff4	*	*staff3	*	*staff2	*	*staff1	*
*Iempty	*	*Icello	*	*Iempty	*	*	*Itenor	*	*	*Ialto	*	*Isoprn	*	*	*Iviola	*	*Ivioln	*	*Ivioln	*	*Ifagot	*	*Icor	*	*Iclars	*
*I"O: Basſi	*	*I"Violoncelli	*	*I"Basſo	*	*	*I"Tenore	*	*	*I"Alto	*	*I"Soprano	*	*	*I"Viole	*	*I"[Violino Secundo]	*	*I"Violini	*	*I"Fagotti	*	*I"Corni in Es.	*	*I"Clarinetti in B.	*
*I'b	*	*I'vc	*	*I'B	*	*	*I'T	*	*	*I'A	*	*I'S	*	*	*I'vla	*	*I'vn 2	*	*I'vn 1	*	*I'fag	*	*I'cor in Es	*	*I'cl in B	*
*clefF4	*	*clefF4	*	*clefF4	*	*	*clefC4	*	*	*clefG2	*	*clefG2	*	*	*clefC3	*	*clefG2	*	*clefG2	*	*clefF4	*	*clefG2	*	*clefG2	*
*	*	*	*	*	*	*	*	*	*	*	*	*	*	*	*	*	*	*	*	*	*	*	*ITrd5c9	*	*ITrd1c2	*
*k[b-e-a-]	*	*k[b-e-a-]	*	*k[b-e-a-]	*	*	*k[b-e-a-]	*	*	*k[b-e-a-]	*	*k[b-e-a-]	*	*	*k[b-e-a-]	*	*k[b-e-a-]	*	*k[b-e-a-]	*	*k[b-e-a-]	*	*k[b-e-a-]	*	*k[b-e-a-]	*
*E-:	*	*E-:	*	*E-:	*	*	*E-:	*	*	*E-:	*	*E-:	*	*	*E-:	*	*E-:	*	*E-:	*	*E-:	*	*E-:	*	*E-:	*
*	*	*	*	*	*	*	*	*	*	*	*	*	*	*	*	*	*	*	*	*	*	*	*	*	*	*
*M4/4	*	*M4/4	*	*M4/4	*	*	*M4/4	*	*	*M4/4	*	*M4/4	*	*	*M4/4	*	*M4/4	*	*M4/4	*	*M4/4	*	*M4/4	*	*M4/4	*
*met(c|)	*	*met(c|)	*	*met(c|)	*	*	*met(c|)	*	*	*met(c|)	*	*met(c|)	*	*	*met(c|)	*	*met(c|)	*	*met(c|)	*	*met(c|)	*	*met(c|)	*	*met(c|)	*
*>[A,B,B1,B,B1,B,B2,C]	*	*>[A,B,B1,B,B1,B,B2,C]	*	*>[A,B,B1,B,B1,B,B2,C]	*	*	*>[A,B,B1,B,B1,B,B2,C]	*	*	*>[A,B,B1,B,B1,B,B2,C]	*	*>[A,B,B1,B,B1,B,B2,C]	*	*	*>[A,B,B1,B,B1,B,B2,C]	*	*>[A,B,B1,B,B1,B,B2,C]	*	*>[A,B,B1,B,B1,B,B2,C]	*	*>[A,B,B1,B,B1,B,B2,C]	*	*>[A,B,B1,B,B1,B,B2,C]	*	*>[A,B,B1,B,B1,B,B2,C]	*
=1	=1	=1	=1	=1	=1	=1	=1	=1	=1	=1	=1	=1	=1	=1	=1	=1	=1	=1	=1	=1	=1	=1	=1	=1	=1	=1
*>A	*	*>A	*	*>A	*	*	*>A	*	*	*>A	*	*>A	*	*	*>A	*	*>A	*	*>A	*	*>A	*	*>A	*	*>A	*
*	*	*2\right	*	*	*	*	*	*	*	*	*	*	*	*	*2\right	*	*2\right	*	*2\right	*	*	*	*	*	*	*
!LO:TX:t=P:problem=all\right&colon; global	!	!LO:TX:t=P:problem=all\right&colon; global	!	!	!	!	!	!	!	!	!	!	!	!	!	!	!	!	!	!	!	!	!	!	!	!
!	!	!	!	!	!	!	!	!	!	!	!	!	!	!	!LO:TX:t=P:problem=all\right&colon; global	!	!LO:TX:t=P:problem=all\right&colon; global	!	!LO:TX:t=P:problem=all\right&colon; global	!	!	!	!	!	!	!
!	!	!	!	!	!	!	!	!	!	!	!	!	!	!	!	!	!	!	!	!	!LO:TX:t=P:problem=all\right&colon; global	!	!LO:TX:t=P:problem=all\right&colon; global	!	!LO:TX:t=P:problem=all\right&colon; global	!
!	!	!	!	!LO:TX:t=P:problem=all\right&colon; global	!	!	!LO:TX:t=P:problem=all\right&colon; global	!	!	!LO:TX:t=P:problem=all\right&colon; global	!	!LO:TX:t=P:problem=all\right&colon; global	!	!	!	!	!	!	!	!	!	!	!	!	!	!
1ryy	.	(<2BB-/	p	1r	.	.	1r	.	.	1r	.	1r	.	.	(>2B-/	p	4r	.	4r	.	1r	.	1r	.	1r	.
!	!	!	!	!	!	!	!	!	!	!	!	!	!	!	!	!	!	!	!	!LO:DY:b:rj	!	!	!	!	!	!
.	.	.	.	.	.	.	.	.	.	.	.	.	.	.	.	.	(<4d/	.	(<4b-/	p	.	.	.	.	.	.
.	.	4C/	.	.	.	.	.	.	.	.	.	.	.	.	4c\	.	4e-/	.	4a-/	.	.	.	.	.	.	.
!	!	!	!	!	!	!	!	!	!	!	!	!	!	!	!	!	!	!	!LO:TX:a:t=P:problem=w źródle łuk konczy się za nutą	!	!	!	!	!	!	!
!	!	!	!	!	!	!	!	!	!	!	!	!	!	!	!LO:TX:a:t=P:problem=w źródle łuk kończy się na kresce taktowej	!	!LO:TX:a:t=P:problem=w źródle łuk kończy się na kresce taktowej	!	!	!	!	!	!	!	!	!
.	.	4D/	.	.	.	.	.	.	.	.	.	.	.	.	4B-\)	.	4f/)	.	4f/)	.	.	.	.	.	.	.
=2!|:	=2!|:	=2!|:	=2!|:	=2!|:	=2!|:	=2!|:	=2!|:	=2!|:	=2!|:	=2!|:	=2!|:	=2!|:	=2!|:	=2!|:	=2!|:	=2!|:	=2!|:	=2!|:	=2!|:	=2!|:	=2!|:	=2!|:	=2!|:	=2!|:	=2!|:	=2!|:
*>B	*	*>B	*	*>B	*	*	*>B	*	*	*>B	*	*>B	*	*	*>B	*	*>B	*	*>B	*	*>B	*	*>B	*	*>B	*
*2\right	*	*	*	*2\right	*	*	*2\right	*	*	*2\right	*	*2\right	*	*	*	*	*	*	*	*	*	*	*	*	*	*
1E-	.	1E-)	.	2E-\	3.)_Niech	.	2B-\	2.)_Przy	.	2e-/	.	2g/	1.)_Na	.	[<1B-	.	(<2e-/	.	(<2g/	.	1ryy	.	1ryy	.	1ryy	.
.	.	.	.	.	.	.	.	.	.	(<8qg/	.	(<8qb-/	.	.	.	.	8qg/	.	8qcc/	.	.	.	.	.	.	.
.	.	.	.	4E-\	ta	.	4B-\	niej	.	4f/)	.	4a-/)	stop-	.	.	.	&(>4f/	.	4a-/	.	.	.	.	.	.	.
.	.	.	.	4E-\	o-	.	4B-\	do	.	4e-/	.	4g/	-niach	.	.	.	4e-/)	.	4g/)	.	.	.	.	.	.	.
=3	=3	=3	=3	=3	=3	=3	=3	=3	=3	=3	=3	=3	=3	=3	=3	=3	=3	=3	=3	=3	=3	=3	=3	=3	=3	=3
2.BB-/	.	2.BB-/	.	2.BB-/	-fia-	.	2.B-\	Cie-	.	(<4e-/	.	2.f/	Twe-	.	2.B-/]	.	(<4e-/	.	(<2.f/	.	1ryy	.	1ryy	.	1ryy	.
.	.	.	.	.	.	.	.	.	.	8d/L	.	.	.	.	.	.	8d/L	.	.	.	.	.	.	.	.	.
.	.	.	.	.	.	.	.	.	.	8c/J	.	.	.	.	.	.	8c/J	.	.	.	.	.	.	.	.	.
.	.	.	.	.	.	.	.	.	.	4d/)	.	.	.	.	.	.	4d/&))	.	.	.	.	.	.	.	.	.
(<4BBn/|	.	4BBn/	.	4BBn/	-ra	.	4G/	-bie	.	4d/	.	4g/	-go	.	[<4G/	.	(<4d'</	.	&(>4g/	.	.	.	.	.	.	.
=4	=4	=4	=4	=4	=4	=4	=4	=4	=4	=4	=4	=4	=4	=4	=4	=4	=4	=4	=4	=4	=4	=4	=4	=4	=4	=4
!	!	!LO:TX:t=P::problem=partia Violoncelli powtarza partię O&colon; Basſi [w źródle oznaczone jako //]	!	!	!	!	!	!	!	!	!	!	!	!	!	!	!	!	!	!	!	!	!	!	!	!
4.C/)	.	4.C/yy	.	4.C/	w-Nie	.	4.G/	lud	.	4.c/	.	4.e-/	u-	.	4.G/]	.	4.c/)	.	4.e-/&))	.	1ryy	.	1ryy	.	1ryy	.
8C/	.	8C/yy	.	8C/	-bie-	.	8G/	pod-	.	8c/	.	8e-/	-pa-	.	8G'</	.	8c'</	.	8e-'>/	.	.	.	.	.	.	.
4C/	.	4C/yy	.	4C/	-skie	.	4G/	-no-	.	4c/	.	4e-/	-da-	.	4G'</	.	4c'</	.	4e-'>/	.	.	.	.	.	.	.
4BB-X/	.	4BB-X/yy	.	4BB-X/	po-	.	4B-\	-si	.	4d/	.	4f/	-my	.	4B-'</	.	4d'</	.	4f'>/	.	.	.	.	.	.	.
!!LO:PB:g=original
=5	=5	=5	=5	=5	=5	=5	=5	=5	=5	=5	=5	=5	=5	=5	=5	=5	=5	=5	=5	=5	=5	=5	=5	=5	=5	=5
*	*	*	*	*	*	*	*	*	*	*	*	*	*	*	*	*	*	*	*	*	*^	*	*^	*	*	*
*	*	*	*	*	*	*	*	*	*	*	*	*	*	*	*	*	*	*	*	*	*2\right	*2\right	*	*2\right	*2\right	*	*	*
4E-\	.	4E-\yy	.	2E-\	-dwo-	.	2B-\	pie-	.	2e-/	.	2g/	tro-	.	8r	.	8r	.	8r	.	2B-/	2E-\	.	2g/	2e-\	.	1r	.
.	.	.	.	.	.	.	.	.	.	.	.	.	.	.	8B-/L	.	8e-/L	.	8g/L	.	.	.	.	.	.	.	.	.
4r	.	4ryy	.	.	.	.	.	.	.	.	.	.	.	.	8B-/	.	8e-/	.	8g/	.	.	.	.	.	.	.	.	.
.	.	.	.	.	.	.	.	.	.	.	.	.	.	.	8B-/J	.	8e-/J	.	8g/J	.	.	.	.	.	.	.	.	.
4BB-/	.	4BB-/yy	.	2BB-/	-je	.	2B-\	-nia	.	2d/	.	2f/	-nu	.	8r	.	8r	.	8r	.	2d/	2BB-\	.	2f 2B-/	2ryy	.	.	.
.	.	.	.	.	.	.	.	.	.	.	.	.	.	.	8B-/L	.	8d/L	.	8f/L	.	.	.	.	.	.	.	.	.
4r	.	4ryy	.	.	.	.	.	.	.	.	.	.	.	.	8B-/	.	8d/	.	8f/	.	.	.	.	.	.	.	.	.
.	.	.	.	.	.	.	.	.	.	.	.	.	.	.	8B-/J	.	8d/J	.	8f/J	.	.	.	.	.	.	.	.	.
*	*	*	*	*	*	*	*	*	*	*	*	*	*	*	*	*	*	*	*	*	*	*	*	*v	*v	*	*	*
=6	=6	=6	=6	=6	=6	=6	=6	=6	=6	=6	=6	=6	=6	=6	=6	=6	=6	=6	=6	=6	=6	=6	=6	=6	=6	=6	=6
*	*	*	*	*	*	*	*	*	*	*	*	*	*	*	*	*	*	*	*	*	*	*	*	*	*	*^	*
*	*	*	*	*	*	*	*	*	*	*	*	*	*	*	*	*	*	*	*	*	*	*	*	*	*	*2\right	*2\right	*
!	!LO:DY:b:rj	!	!LO:DY:b:rj	!	!	!LO:DY:a:rj	!	!	!LO:DY:a:rj	!	!	!	!	!LO:DY:a:rj	!	!	!	!	!	!	!	!	!LO:DY:b:rj	!	!	!	!	!
4GG/	f	4GG/yy	f	2GG/	Z-pie	f	2Bn\	Niech	f	2d/	.	2g/	Po-	f	8r	.	8r	.	8r	.	2Bn/	2GG\	f	2g 2G/	.	2g/	2d\	f
!	!	!	!	!	!	!	!	!	!	!	!	!	!	!	!	!	!	!	!	!LO:DY:b:rj	!	!	!	!	!	!	!	!
.	.	.	.	.	.	.	.	.	.	.	.	.	.	.	8Bn/L	.	8d/L	.	8g/L	f	.	.	.	.	.	.	.	.
!	!LO:HP:b	!	!LO:HP:b	!	!	!	!	!	!	!	!	!	!	!	!	!	!	!	!	!	!	!	!	!	!	!	!	!
4r	<	4ryy	<	.	.	.	.	.	.	.	.	.	.	.	8B/	.	8d/	.	8g/	.	.	.	.	.	.	.	.	.
.	.	.	.	.	.	.	.	.	.	.	.	.	.	.	8B/J	.	8d/J	.	8g/J	.	.	.	.	.	.	.	.	.
8G\	.	8G\yy	.	4G\	-niem	.	4B\	Go	.	4d/	.	4g/	-tęż-	.	8r	.	8r	.	8r	.	4B/	4G\	.	4g 4A-/	.	4g/	4d\	.
8r	.	8ryy	.	.	.	.	.	.	.	.	.	.	.	.	8B/	.	8d/	.	8g/	.	.	.	.	.	.	.	.	.
8F\	.	8F\yy	.	4F\	się	.	4d\	łask-	.	4g/	.	4bn/	-ny	.	8r	.	8r	.	8r	.	4d/	4F\	.	4g 4A-/	.	4bX/	4g\	.
8r	.	8ryy	.	.	.	.	.	.	.	.	.	.	.	.	8d/	.	8g/	.	8bn/	.	.	.	.	.	.	.	.	.
=7	=7	=7	=7	=7	=7	=7	=7	=7	=7	=7	=7	=7	=7	=7	=7	=7	=7	=7	=7	=7	=7	=7	=7	=7	=7	=7	=7	=7
*	*	*	*	*	*	*	*	*	*	*^	*	*	*	*	*	*	*	*	*	*	*	*	*	*	*	*	*	*
8E-\	.	8E-\yy	.	(>4.E-\	wznie-	.	4.c\	-ka-	.	4.g/	2g\	.	4.cc\	Sa-	.	8r	.	8r	.	8r	.	4.e-/	4.E-\	.	4.g 4.G/	.	4.cc/	4.g\	.
8r	.	8ryy	.	.	.	.	.	.	.	.	.	.	.	.	.	8e-\L	.	8g/L	.	8cc\L	.	.	.	.	.	.	.	.	.
8E-\L	.	8E-\Lyy	.	.	.	.	.	.	.	.	.	.	.	.	.	8e-\	.	8g/	.	8cc\	.	.	.	.	.	.	.	.	.
8D\J	[	8D\Jyy	[	8D\)	.	.	8Bn\	.	.	8g/	.	.	8dd\	-ba-	.	8f\J	.	8bn/J	.	8dd\J	.	8f/	8D\	.	8g 8G/	.	8dd/	8bX\	.
8C/	.	8C/yy	.	2C/	-sie	.	2c\	-wie	.	2g/	2ryy	.	2ee-\	-oth	.	8r	.	8r	.	8r	.	2e-/	2C\	.	2g 2G/	.	2ee-/	2cc\	.
8r	.	8ryy	.	.	.	.	.	.	.	.	.	.	.	.	.	8e-\	.	8cc\	.	8ee-\	.	.	.	.	.	.	.	.	.
8C/	.	8C/yy	.	.	.	.	.	.	.	.	.	.	.	.	.	8r	.	8r	.	8r	.	.	.	.	.	.	.	.	.
8r	.	8ryy	.	.	.	.	.	.	.	.	.	.	.	.	.	8e-\	.	8cc\	.	8ee-\	.	.	.	.	.	.	.	.	.
*	*	*	*	*	*	*	*	*	*	*v	*v	*	*	*	*	*	*	*	*	*	*	*	*	*	*	*	*	*	*
=8	=8	=8	=8	=8	=8	=8	=8	=8	=8	=8	=8	=8	=8	=8	=8	=8	=8	=8	=8	=8	=8	=8	=8	=8	=8	=8	=8	=8
*	*	*	*	*	*	*	*^	*	*	*	*	*	*	*	*	*	*	*	*	*	*	*	*	*	*	*	*	*
4D\	.	4D\yy	.	4.D\	i	.	4.B-X/	2ryy	do-	.	4.b-/	.	4.dd\	wie-	.	8r	.	8r	.	8r	.	(>2.d/	1D	.	1r	.	4.dd 4.b-\	4.ryy	.
.	.	.	.	.	.	.	.	.	.	.	.	.	.	.	.	8d\L	.	8b-/L	.	8dd\L	.	.	.	.	.	.	.	.	.
4r	.	4ryy	.	.	.	.	.	.	.	.	.	.	.	.	.	8d\	.	8b-/	.	8dd\	.	.	.	.	.	.	.	.	.
.	.	.	.	8D\	ka-	.	8c/	.	-broć	.	8an/	.	8cc\	-ku-	.	8d\J	.	8an/J	.	8cc\J	.	.	.	.	.	.	8ccn 8a\	8ryy	.
8D\	.	8D\yy	.	4D\	-dzi-	.	4d/	4ryy	Twa	.	4g/	.	4b-\	-i-	.	8r	.	8r	.	8r	.	.	.	.	.	.	4b-/	4g\	.
8r	.	8ryy	.	.	.	.	.	.	.	.	.	.	.	.	.	8d\	.	8g/	.	8b-/	.	.	.	.	.	.	.	.	.
8D\	.	8D\yy	.	4D\	-deł	.	4d/	4c\	wy-	.	4f#X/	.	4an\	-sty	.	8r	.	8r	.	8r	.	4c/)	.	.	.	.	4a/	4f#X\	.
8r	.	8ryy	.	.	.	.	.	.	.	.	.	.	.	.	.	8d 8c\	.	8f#X/	.	8an/	.	.	.	.	.	.	.	.	.
=9	=9	=9	=9	=9	=9	=9	=9	=9	=9	=9	=9	=9	=9	=9	=9	=9	=9	=9	=9	=9	=9	=9	=9	=9	=9	=9	=9	=9	=9
4D\	.	4D\yy	.	(<2D\	wo-	.	(<2d/	2c\	-słu-	.	(<2f#X/	.	(<2an/	Bo-	.	8r	.	8r	.	8r	.	(>2c/	2D\	.	1r	.	2a 2f#X/	2ryy	.
*	*	*	*	*	*	*	*	*	*	*	*	*	*	*	*	*tremolo	*	*tremolo	*	*tremolo	*	*	*	*	*	*	*	*	*
.	.	.	.	.	.	.	.	.	.	.	.	.	.	.	.	8d 8c\L	.	8f#X/L	.	8an/L	.	.	.	.	.	.	.	.	.
4r	.	4ryy	.	.	.	.	.	.	.	.	.	.	.	.	.	8d 8c\	.	8f#X/	.	8an/	.	.	.	.	.	.	.	.	.
.	.	.	.	.	.	.	.	.	.	.	.	.	.	.	.	8d 8c\J	.	8f#X/J	.	8an/J	.	.	.	.	.	.	.	.	.
*	*	*	*	*	*	*	*	*	*	*	*	*	*	*	*	*Xtremolo	*	*Xtremolo	*	*Xtremolo	*	*	*	*	*	*	*	*	*
.	.	.	.	8qG/)	.	.	8qB-/)	.	.	.	8qg/)	.	8qg/)	.	.	.	.	.	.	.	.	.	.	.	.	.	.	.	.
4GG/	.	4GG/yy	.	4G\	-nią	.	4d/	4B-\	-cha	.	4g/	.	4g/	-że	.	8r	.	8r	.	8r	.	2B-/)	2G\	.	.	.	2g/	2g\	.
*	*	*	*	*	*	*	*	*	*	*	*	*	*	*	*	*tremolo	*	*tremolo	*	*tremolo	*	*	*	*	*	*	*	*	*
.	.	.	.	.	.	.	.	.	.	.	.	.	.	.	.	8d 8B-\L	.	8g/L	.	8g/L	.	.	.	.	.	.	.	.	.
4r	.	4ryy	.	4r	.	.	4r	4ryy	.	.	4r	.	4r	.	.	8d 8B-\	.	8g/	.	8g/	.	.	.	.	.	.	.	.	.
.	.	.	.	.	.	.	.	.	.	.	.	.	.	.	.	8d 8B-\J	.	8g/J	.	8g/J	.	.	.	.	.	.	.	.	.
*	*	*	*	*	*	*	*	*	*	*	*	*	*	*	*	*Xtremolo	*	*Xtremolo	*	*Xtremolo	*	*	*	*	*	*	*	*	*
*	*	*	*	*	*	*	*v	*v	*	*	*	*	*	*	*	*	*	*	*	*	*	*v	*v	*	*	*	*v	*v	*
=10	=10	=10	=10	=10	=10	=10	=10	=10	=10	=10	=10	=10	=10	=10	=10	=10	=10	=10	=10	=10	=10	=10	=10	=10	=10	=10
!	!	!	!	!	!	!	!	!	!	!	!	!	!	!	!LO:TX:a:t=P:problem=w źródle brak początku ligatury	!	!	!	!	!	!	!	!	!	!	!
!	!LO:DY:b:rj	!	!LO:DY:b:rj	!	!	!	!	!	!	!	!	!	!	!LO:DY:b:rj	!	!LO:DY:b:rj	!	!LO:DY:b:rj	!	!LO:DY:b:rj	!	!	!	!	!	!
1E-	p	1E-yy	p	2E-\	Niech	.	2B-\	Wlej	.	2e-/	.	2g/	Ja-	p	[<1B-	p	(<2e-/	p	(<2g/	p	1ryy	.	1ryy	.	1ryy	.
.	.	.	.	.	.	.	.	.	.	(<8qg/	.	(<8qb-/	.	.	.	.	&(<8qf/	.	&(<8qb-/	.	.	.	.	.	.	.
.	.	.	.	4E-\	łzy	.	4B-\	w-ser	.	4fn/)	.	4a-X/)	-każ	.	.	.	4f/&)	.	4a-/&)	.	.	.	.	.	.	.
.	.	.	.	4E-\	po-	.	4B-\	-ca	.	4e-/	.	4g/	o-	.	.	.	4e-/	.	4g/	.	.	.	.	.	.	.
!!LO:PB:g=original
=11	=11	=11	=11	=11	=11	=11	=11	=11	=11	=11	=11	=11	=11	=11	=11	=11	=11	=11	=11	=11	=11	=11	=11	=11	=11	=11
2.BB-/	.	2.BB-/yy	.	2.BB-/	-ku-	.	2.B-\	na-	.	(<4e-/	.	2.f/	-fia-	.	2.B-/]	.	4e-/	.	2.f/)	.	1r	.	1r	.	1r	.
.	.	.	.	.	.	.	.	.	.	8d/L	.	.	.	.	.	.	8d/L	.	.	.	.	.	.	.	.	.
.	.	.	.	.	.	.	.	.	.	8c/J)	.	.	.	.	.	.	8c/J	.	.	.	.	.	.	.	.	.
.	.	.	.	.	.	.	.	.	.	4d/	.	.	.	.	.	.	4d/)	.	.	.	.	.	.	.	.	.
(<4BBn/	.	(<4BBn/yy	.	4BBn/	-ty	.	4G/	-sze	.	4d/	.	4g/	-ra	.	[<4G/	.	(<4d/	.	(<4g/	.	.	.	.	.	.	.
=12	=12	=12	=12	=12	=12	=12	=12	=12	=12	=12	=12	=12	=12	=12	=12	=12	=12	=12	=12	=12	=12	=12	=12	=12	=12	=12
4.C/)	.	4.C/)yy	.	4.C/	od	.	4.G/	po-	.	4.c/	.	4.e-/	mil-	.	4.G/]	.	4.c/)	.	4.e-/)	.	1r	.	1r	.	1r	.
8C'</	.	8C'</yy	.	8C/	kar	.	8G/	-boż-	.	8c/	.	8e-/	-szą	.	8G/	.	8c'</	.	8e-'</	.	.	.	.	.	.	.
4C'</	.	4C'</yy	.	4C/	nas	.	4G/	-noś-	.	4c/	.	4e-/	Ci	.	4G/	.	4c'</	.	4e-'</	.	.	.	.	.	.	.
!	!	!	!	!	!	!	!	!	!	!	!	!	!LO:MO:mod=być	!	!	!	!	!	!	!	!	!	!	!	!	!
4BB-X'</	.	4BB-X'</yy	.	4BB-X/	u-	.	4B-\	-ci	.	4d/	.	4f/	bydź	.	4B-/	.	4d'</	.	4f'</	.	.	.	.	.	.	.
=13	=13	=13	=13	=13	=13	=13	=13	=13	=13	=13	=13	=13	=13	=13	=13	=13	=13	=13	=13	=13	=13	=13	=13	=13	=13	=13
*	*	*	*	*	*	*	*	*	*	*	*	*	*	*	*	*	*	*	*	*	*^	*	*^	*	*	*
!	!	!	!	!	!	!	!	!	!	!	!	!	!	!	!	!	!	!	!	!	!	!	!	!	!	!LO:DY:b:rj	!	!
4E-\	.	4E-\yy	.	(>2E-\	-chro-	.	2B-\	du-	.	(<2e-/	.	(>2g/	mo-	.	8r	.	8r	.	8r	.	2B-\	2E-\	.	2g/	2e-\	p	1r	.
*	*	*	*	*	*	*	*	*	*	*	*	*	*	*	*tremolo	*	*tremolo	*	*tremolo	*	*	*	*	*	*	*	*	*
.	.	.	.	.	.	.	.	.	.	.	.	.	.	.	8B-/L	.	8e-/L	.	8g/L	.	.	.	.	.	.	.	.	.
4r	.	4ryy	.	.	.	.	.	.	.	.	.	.	.	.	8B-/	.	8e-/	.	8g/	.	.	.	.	.	.	.	.	.
.	.	.	.	.	.	.	.	.	.	.	.	.	.	.	8B-/J	.	8e-/J	.	8g/J	.	.	.	.	.	.	.	.	.
*	*	*	*	*	*	*	*	*	*	*	*	*	*	*	*Xtremolo	*	*Xtremolo	*	*Xtremolo	*	*	*	*	*	*	*	*	*
.	.	.	.	8qBB-/)	.	.	.	.	.	8qd/)	.	8qf/)	.	.	.	.	.	.	.	.	.	.	.	.	.	.	.	.
4BB-/	.	4BB-/yy	.	2BB-/	-nią	.	2B-\	-cha	.	2d/	.	2f/	-że	.	8r	.	8r	.	8r	.	2d/	2BB-\	.	2f 2B-/	2ryy	.	.	.
*	*	*	*	*	*	*	*	*	*	*	*	*	*	*	*tremolo	*	*tremolo	*	*tremolo	*	*	*	*	*	*	*	*	*
.	.	.	.	.	.	.	.	.	.	.	.	.	.	.	8B-/L	.	8d/L	.	8f/L	.	.	.	.	.	.	.	.	.
4r	.	4ryy	.	.	.	.	.	.	.	.	.	.	.	.	8B-/	.	8d/	.	8f/	.	.	.	.	.	.	.	.	.
.	.	.	.	.	.	.	.	.	.	.	.	.	.	.	8B-/J	.	8d/J	.	8f/J	.	.	.	.	.	.	.	.	.
*	*	*	*	*	*	*	*	*	*	*	*	*	*	*	*Xtremolo	*	*Xtremolo	*	*Xtremolo	*	*	*	*	*	*	*	*	*
*	*	*	*	*	*	*	*	*	*	*	*	*	*	*	*	*	*	*	*	*	*	*	*	*v	*v	*	*	*
*	*	*	*	*	*	*	*	*	*	*	*	*	*	*	*	*	*	*	*	*	*v	*v	*	*	*	*	*
=14	=14	=14	=14	=14	=14	=14	=14	=14	=14	=14	=14	=14	=14	=14	=14	=14	=14	=14	=14	=14	=14	=14	=14	=14	=14	=14
*	*	*	*	*	*	*	*	*	*	*	*	*	*	*	*	*	*	*	*	*	*	*	*	*	*^	*
!	!LO:DY:b:rj	!	!LO:DY:b:rj	!	!	!	!	!	!	!	!	!	!	!LO:DY:a:rj	!	!LO:DY:b:rj	!	!	!	!	!	!LO:DY:a:rj	!	!	!	!	!LO:DY:b:rj
8BBn/	f	8BBn/yy	f	(>4BBn/	I	.	(>4d\	I	.	(>4d/	.	2g/	Nad	f	8r	f	8r	.	8r	.	(>4d 4Bn\	f	[>1g [<1G	.	(>2.gg\	2.g\	f
!	!	!	!	!	!	!	!	!	!	!	!	!	!	!	!	!	!	!	!	!LO:DY:b:rj	!	!	!	!	!	!	!
8r	.	8ryy	.	.	.	.	.	.	.	.	.	.	.	.	8Bn/	.	8c/	.	8g/	f	.	.	.	.	.	.	.
8GG/	.	8GG/yy	.	4G 4GG\)	.	.	4Bn\)	.	.	4Bn/)	.	.	.	.	8r	.	8r	.	8r	.	4B 4G\	.	.	.	.	.	.
8r	.	8ryy	.	.	.	.	.	.	.	.	.	.	.	.	8G/	.	8Bn/	.	8g/	.	.	.	.	.	.	.	.
8AAn/	.	8AAn/yy	.	4An 4AAn\	u-	.	4c\	o-	.	4c/	.	4g/	tę	.	8r	.	8r	.	8r	.	4c) 4An\	.	.	.	.	.	.
8r	.	8ryy	.	.	.	.	.	.	.	.	.	.	.	.	8An/	.	8c/	.	8g/	.	.	.	.	.	.	.	.
8BB/	.	8BB/yy	.	4Bn 4BBn\	-bła-	.	4d\	-bróć	.	4d/	.	4f/	o-	.	8r	.	8r	.	8r	.	4d 4B\	.	.	.	4ff\	4f\	.
8r	.	8ryy	.	.	.	.	.	.	.	.	.	.	.	.	8B/	.	8d/	.	8f/	.	.	.	.	.	.	.	.
*	*	*	*	*	*	*	*	*	*	*	*	*	*	*	*	*	*	*	*	*	*	*	*	*	*v	*v	*
=15	=15	=15	=15	=15	=15	=15	=15	=15	=15	=15	=15	=15	=15	=15	=15	=15	=15	=15	=15	=15	=15	=15	=15	=15	=15	=15
*	*	*	*	*	*	*	*	*	*	*	*	*	*	*	*	*	*	*	*	*	*^	*	*	*	*	*
!	!	!	!	!	!	!	!	!	!	!	!	!	!	!	!	!	!	!	!	!	!	!LO:TX:a:t=P:problem=note position	!	!	!	!	!
8C/	.	8C/yy	.	4c 4C\	-ga-	.	2c\	na	.	2c/	.	(>4e-/	-fia-	.	8r	.	8r	.	8r	.	4c\	1c	.	2g] 2G/]	.	4ee- 4e-\	.
8r	.	8ryy	.	.	.	.	.	.	.	.	.	.	.	.	8c/	.	8c/	.	8e-/	.	.	.	.	.	.	.	.
*	*	*	*	*	*	*	*	*	*	*	*	*	*	*	*	*	*rep	*	*	*	*	*	*	*	*	*	*
8BB-/	.	8BB-/yy	.	4B-X 4BB-X\	.	.	.	.	.	.	.	4en/)	.	.	8r	.	8r	.	8r	.	4B-X\	.	.	.	.	4eeX 4eX\	.
8r	.	8ryy	.	.	.	.	.	.	.	.	.	.	.	.	8B-X/	.	8c/	.	8en/	.	.	.	.	.	.	.	.
*	*	*	*	*	*	*	*	*	*	*	*	*	*	*	*	*	*Xrep	*	*	*	*	*	*	*	*	*	*
*	*	*	*	*	*	*	*	*	*	*	*	*	*	*	*	*	*rep	*	*	*	*	*	*	*	*	*	*
!	!	!	!	!	!LO:MO:mod=ją	!	!	!	!	!	!	!	!	!	!	!	!	!	!	!	!	!	!	!	!	!	!
8AA-X/	.	8AA-X/yy	.	4A-X 4AA-X\	-ią	.	4c\	nas	.	4c/	.	4f/	-rę	.	8r	.	8r	.	8r	.	4A-X\	.	.	2r	.	4ff 4f\	.
8r	.	8ryy	.	.	.	.	.	.	.	.	.	.	.	.	8A-/	.	8c/	.	8f/	.	.	.	.	.	.	.	.
*	*	*	*	*	*	*	*	*	*	*	*	*	*	*	*	*	*Xrep	*	*	*	*	*	*	*	*	*	*
*	*	*	*	*	*	*	*	*	*	*	*	*	*	*	*	*	*rep	*	*	*	*	*	*	*	*	*	*
!	!	!	!	!	!	!	!	!	!	!	!	!	!LO:MO:mod=Chry	!	!	!	!	!	!	!	!	!	!	!	!	!	!
8FF/	.	8FF/yy	.	4F\	.	.	4c\	Oj-	.	4c/	.	4a-/	Chri-	.	8r	.	8r	.	8r	.	4F\	.	.	.	.	4aa- 4a-\)	.
8r	.	8ryy	.	.	.	.	.	.	.	.	.	.	.	.	8F/	.	8c/	.	8a-/	.	.	.	.	.	.	.	.
*	*	*	*	*	*	*	*	*	*	*	*	*	*	*	*	*	*Xrep	*	*	*	*	*	*	*	*	*	*
!!LO:PB:g=original
=16	=16	=16	=16	=16	=16	=16	=16	=16	=16	=16	=16	=16	=16	=16	=16	=16	=16	=16	=16	=16	=16	=16	=16	=16	=16	=16	=16
*	*	*	*	*^	*	*	*^	*	*	*^	*	*^	*	*	*	*	*	*	*	*	*	*	*	*^	*	*	*
!	!	!	!	!	!LO:TX:a:t=P:problem=note position	!	!	!	!LO:TX:a:t=P:problem=note position	!	!	!	!	!	!	!	!	!	!	!	!	!	!	!	!	!	!	!	!	!	!	!
!	!LO:DY:b:rj	!	!LO:DY:b:rj	!	!	!	!LO:DY:a:rj	!	!	!	!	!	!	!	!	!	!	!LO:DY:a:rj	!	!	!	!	!	!	!	!	!	!	!	!LO:DY:b:Bi:t=%s.:rj	!	!
4BB-/	p	4BB-/yy	p	4B-X 4BB-X/	2B- 2BB-\	mi-	p	4A-X\	2B-\	-cow-	.	4e-\	2e-/	.	4g\	2g/	-stu-	p	8r	.	8r	.	8r	.	2.e-/	[>2B-\	.	2g/	2e-\	p	1r	.
!	!	!	!	!	!	!	!	!	!	!	!	!	!	!	!	!	!	!	!	!LO:DY:a:rj	!	!	!	!LO:DY:b:rj	!	!	!	!	!	!	!	!
.	.	.	.	.	.	.	.	.	.	.	.	.	.	.	.	.	.	.	8B-/L	p	8e-/L	.	8g/L	p	.	.	.	.	.	.	.	.
4r	.	4ryy	.	4B- 4BB-/	.	-ło-	.	4B-\	.	.	.	4e-\	.	.	4g\	.	.	.	8B-/	.	8e-/	.	8g/	.	.	.	.	.	.	.	.	.
.	.	.	.	.	.	.	.	.	.	.	.	.	.	.	.	.	.	.	8B-/J	.	8e-/J	.	8g/J	.	.	.	.	.	.	.	.	.
8BB-/	.	8BB-/yy	.	4BB-/	4BB-\	-sier-	.	4B-/	4B-\	-wskie	.	4e-/	4e-\	.	4f/	4f\	-sa	.	8r	.	8r	.	8r	.	.	2B-\]	.	2f/	2B-/	.	.	.
8r	.	8ryy	.	.	.	.	.	.	.	.	.	.	.	.	.	.	.	.	8B-/	.	8e-/	.	8f/	.	.	.	.	.	.	.	.	.
!	!	!	!	!	!	!	!	!	!	!LO:MO:mod=wej	!	!	!	!	!	!	!	!	!	!	!	!	!	!	!	!	!	!	!	!	!	!
8BB-/	.	8BB-/yy	.	4BB-/	4BB-\	-dzie	.	4B-/	4B-\	wey-	.	4d/	4d\	.	4f/	4f\	za-	.	8r	.	8r	.	8r	.	4d/	.	.	.	.	.	.	.
8r	.	8ryy	.	.	.	.	.	.	.	.	.	.	.	.	.	.	.	.	8B-/	.	8d/	.	8f/	.	.	.	.	.	.	.	.	.
*	*	*	*	*	*	*	*	*	*	*	*	*v	*v	*	*	*	*	*	*	*	*	*	*	*	*	*	*	*v	*v	*	*	*
*	*	*	*	*v	*v	*	*	*	*	*	*	*	*	*v	*v	*	*	*	*	*	*	*	*	*	*	*	*	*	*	*
=17	=17	=17	=17	=17	=17	=17	=17	=17	=17	=17	=17	=17	=17	=17	=17	=17	=17	=17	=17	=17	=17	=17	=17	=17	=17	=17	=17	=17
*	*	*	*	*	*	*	*	*	*	*	*	*	*	*	*	*	*	*	*	*	*	*	*	*	*	*	*^	*
*	*	*	*	*	*	*	*	*	*	*	*	*	*	*	*	*	*	*	*	*	*	*	*	*	*^	*	*	*	*
4E-^<\	.	4E-^<\yy	.	2E-^>\	Two-	.	(>4.c\	4.An\	-rze-	.	2e-^>/	.	(<4.f#X^>/	-ko-	.	8r	.	8r	.	8r	.	4.c^< 4.An\	4.ryy	.	2e-^>/	2E-/	.	(<4.f#X^>/	4.f#\	.
!	!	!	!	!	!	!	!	!	!	!	!	!	!	!	!	!	!	!	!	!LO:TX:a:t=P:problem=diminuendolike accent	!	!	!	!	!	!	!	!	!	!
.	.	.	.	.	.	.	.	.	.	.	.	.	.	.	.	8An/L	.	8e-L 8c/	.	8f#X'<^>/L	.	.	.	.	.	.	.	.	.	.
4r	.	4ryy	.	.	.	.	.	.	.	.	.	.	.	.	.	(<8A/	.	8e- 8c/	.	(<8f#/	.	.	.	.	.	.	.	.	.	.
.	.	.	.	.	.	.	8B-/)	8B-\	.	.	.	.	8g/)	.	.	8B-/J)	.	8e-J 8B-/	.	8g/J)	.	8B-/	8B-\	.	.	.	.	8g/)	8g\	.
2E-;>\	.	2E-;>\yy	.	2E-;>\	-je	.	2B-;>/	2B-\	-nie	.	2e-;>/	.	2g;>/	-nu	.	2B-;>/	.	2e- 2B-;>/	.	2g;>/	.	2B-/	2B-\	.	2e-;>/	2E-/	.	2g;>/	2g\	.
*	*	*	*	*	*	*	*	*	*	*	*	*	*	*	*	*	*	*	*	*	*	*	*	*	*v	*v	*	*	*	*
*	*	*	*	*	*	*	*v	*v	*	*	*	*	*	*	*	*	*	*	*	*	*	*v	*v	*	*	*	*	*	*
=18	=18	=18	=18	=18	=18	=18	=18	=18	=18	=18	=18	=18	=18	=18	=18	=18	=18	=18	=18	=18	=18	=18	=18	=18	=18	=18	=18
!	!LO:DY:b:rj	!	!LO:DY:b:rj	!	!	!LO:DY:a:rj	!	!	!	!	!	!	!	!LO:DY:a:rj	!	!	!	!	!	!	!	!LO:DY:b:rj	!	!	!	!	!LO:DY:b:rj
8BBn/	f	8BBn/yy	f	(>4BBn/	I	f	(>4d\	I	.	(>4d/	.	2g/	Nad	f	8r	.	8r	.	8r	.	(>4d 4Bn\	f	[>1g [<1G	.	(>2.gg\	2.g\	f
!	!	!	!	!	!	!	!	!	!	!	!	!	!	!	!	!	!	!	!	!LO:DY:a:rj	!	!	!	!	!	!	!
8r	.	8ryy	.	.	.	.	.	.	.	.	.	.	.	.	8Bn/	.	8d/	.	8g/	f	.	.	.	.	.	.	.
8GG/	.	8GG/yy	.	4G 4GG\)	.	.	4Bn\)	.	.	4Bn/)	.	.	.	.	8r	.	8r	.	8r	.	4B 4G\	.	.	.	.	.	.
8r	.	8ryy	.	.	.	.	.	.	.	.	.	.	.	.	8G/	.	8Bn/	.	8g/	.	.	.	.	.	.	.	.
8AAn/	.	8AAn/yy	.	4An 4AAn\	u-	.	4c\	ob-	.	4c/	.	4g/	tę	.	8r	.	8r	.	8r	.	4c 4An\	.	.	.	.	.	.
8r	.	8ryy	.	.	.	.	.	.	.	.	.	.	.	.	8An/	.	8c/	.	8g/	.	.	.	.	.	.	.	.
8BB/	.	8BB/yy	.	4Bn 4BBn\	-bła-	.	4d\	-róć	.	4d/	.	4f/	o-	.	8r	.	8r	.	8r	.	4d 4B\)	.	.	.	4ff\	4f\	.
8r	.	8ryy	.	.	.	.	.	.	.	.	.	.	.	.	8B/	.	8d/	.	8f/	.	.	.	.	.	.	.	.
=19	=19	=19	=19	=19	=19	=19	=19	=19	=19	=19	=19	=19	=19	=19	=19	=19	=19	=19	=19	=19	=19	=19	=19	=19	=19	=19	=19
*	*	*	*	*	*	*	*	*	*	*	*	*	*	*	*	*	*	*	*	*	*^	*	*	*	*	*	*
!	!	!	!	!	!	!	!	!	!	!	!	!	!	!	!	!	!	!	!	!	!	!LO:TX:a:t=P:problem=note position	!	!	!	!	!	!
8C/	.	8C/yy	.	4c 4C\	-ga-	.	2c\	na	.	2c/	.	(>4e-/	-fia-	.	8r	.	8r	.	8r	.	(>4c\	1c	.	2g] 2G/]	.	4ee-\	4e-\	.
8r	.	8ryy	.	.	.	.	.	.	.	.	.	.	.	.	8c/	.	8c/	.	8e-/	.	.	.	.	.	.	.	.	.
*	*	*	*	*	*	*	*	*	*	*	*	*	*	*	*	*	*rep	*	*	*	*	*	*	*	*	*	*	*
!	!	!	!	!	!	!	!	!	!	!	!	!	!	!	!	!	!	!	!	!	!	!	!	!	!	!LO:TX:t=P:problem=w źródle kasownik poprawiony ołówkiem na krzyżyk [przyjęte w kodzie]	!	!
8BB-X/	.	8BB-X/yy	.	4B-X 4BB-X\	.	.	.	.	.	.	.	4en/)	.	.	8r	.	8r	.	8r	.	4B-X\	.	.	.	.	4ee\	4e\	.
8r	.	8ryy	.	.	.	.	.	.	.	.	.	.	.	.	8B-X/	.	8c/	.	8en/	.	.	.	.	.	.	.	.	.
*	*	*	*	*	*	*	*	*	*	*	*	*	*	*	*	*	*Xrep	*	*	*	*	*	*	*	*	*	*	*
*	*	*	*	*	*	*	*	*	*	*	*	*	*	*	*	*	*rep	*	*	*	*	*	*	*	*	*	*	*
!	!	!	!	!	!LO:MO:mod=ją	!	!	!	!	!	!	!	!	!	!	!	!	!	!	!	!	!	!	!	!	!	!	!
8AA-X/	.	8AA-X/yy	.	(>4A-X 4AA-X\	-ią	.	4c\	nas	.	4c/	.	4f/	-rę	.	8r	.	8r	.	8r	.	4A-X\	.	.	2r	.	4ff\	4f\	.
8r	.	8ryy	.	.	.	.	.	.	.	.	.	.	.	.	8A-X/	.	8c/	.	8f/	.	.	.	.	.	.	.	.	.
*	*	*	*	*	*	*	*	*	*	*	*	*	*	*	*	*	*Xrep	*	*	*	*	*	*	*	*	*	*	*
*	*	*	*	*	*	*	*	*	*	*	*	*	*	*	*	*	*rep	*	*	*	*	*	*	*	*	*	*	*
!	!	!	!	!	!	!	!	!	!	!	!	!	!LO:MO:mod=Chry	!	!	!	!	!	!	!	!	!	!	!	!	!	!	!
8FF/	.	8FF/yy	.	4F\)	.	.	4c\	Oj-	.	4c/	.	4a-/	Chri-	.	8r	.	8r	.	8r	.	4F\)	.	.	.	.	4aa-\)	4a-\	.
8r	.	8ryy	.	.	.	.	.	.	.	.	.	.	.	.	8F/	.	8c/	.	8a-/	.	.	.	.	.	.	.	.	.
*	*	*	*	*	*	*	*	*	*	*	*	*	*	*	*	*	*Xrep	*	*	*	*	*	*	*	*	*	*	*
*	*	*	*	*	*	*	*	*	*	*	*	*	*	*	*	*	*	*	*	*	*	*	*	*	*	*v	*v	*
=20	=20	=20	=20	=20	=20	=20	=20	=20	=20	=20	=20	=20	=20	=20	=20	=20	=20	=20	=20	=20	=20	=20	=20	=20	=20	=20	=20
*	*	*	*	*^	*	*	*^	*	*	*^	*	*^	*	*	*	*	*	*	*	*	*	*	*	*^	*	*	*
!	!	!	!	!	!LO:TX:a:t=P:problem=note position	!	!	!	!	!	!	!	!	!	!	!	!	!	!	!	!	!	!	!	!	!LO:TX:a:t=P:problem=note position	!	!	!	!	!	!
!	!LO:DY:b:rj	!	!LO:DY:b:rj	!	!	!	!LO:DY:a:rj	!	!	!	!	!	!	!	!	!	!	!LO:DY:a:rj	!	!	!	!	!	!LO:DY:a	!	!	!LO:DY:b:rj	!	!	!LO:DY:b:rj	!	!
4BB-/	p	4BB-/yy	p	4B- 4BB-/	2B- 2BB-\	mi-	p	4B-X\	2B-/	-cow-	.	4e-\	2e-/	.	4g\	2g/	-stu-	p	8r	.	8r	.	8r	p	2.e-/	2B-\	p	2g/	2e-\	p	1r	.
.	.	.	.	.	.	.	.	.	.	.	.	.	.	.	.	.	.	.	8B-X/L	.	8e-/L	.	8g/L	.	.	.	.	.	.	.	.	.
4r	.	4ryy	.	4B- 4BB-/	.	-ło-	.	4B-\	.	.	.	4e-\	.	.	4g\	.	.	.	8B-/	.	8e-/	.	8g/	.	.	.	.	.	.	.	.	.
.	.	.	.	.	.	.	.	.	.	.	.	.	.	.	.	.	.	.	8B-/J	.	8e-/J	.	8g/J	.	.	.	.	.	.	.	.	.
8BB-/	.	8BB-/yy	.	4BB-/	4BB-\	-sier-	.	4B-/	4B-\	-skie	.	4e-/	4e-\	.	4f/	4f\	-sa	.	8r	.	8r	.	8r	.	.	2BB-/	.	2f/	2B-/	.	.	.
8r	.	8ryy	.	.	.	.	.	.	.	.	.	.	.	.	.	.	.	.	8B-/	.	8e-/	.	8f/	.	.	.	.	.	.	.	.	.
8BB-/	.	8BB-/yy	.	4BB-/	4BB-\	-dzie	.	4B-/	4A-\	wej-	.	4d/	4d\	.	4f/	4f\	za-	.	8r	.	8r	.	8r	.	4d/	.	.	.	.	.	.	.
8r	.	8ryy	.	.	.	.	.	.	.	.	.	.	.	.	.	.	.	.	8A-/	.	8d/	.	8f 8B-/	.	.	.	.	.	.	.	.	.
!!LO:PB:g=original
*	*	*	*	*	*	*	*	*	*	*	*	*v	*v	*	*	*	*	*	*	*	*	*	*	*	*v	*v	*	*v	*v	*	*	*
*	*	*	*	*v	*v	*	*	*	*	*	*	*	*	*v	*v	*	*	*	*	*	*	*	*	*	*	*	*	*	*
=21	=21	=21	=21	=21	=21	=21	=21	=21	=21	=21	=21	=21	=21	=21	=21	=21	=21	=21	=21	=21	=21	=21	=21	=21	=21	=21	=21
!!LO:TX:a:Bi:t=1ma
*>B1	*	*>B1	*	*>B1	*	*	*>B1	*	*	*	*>B1	*	*>B1	*	*	*>B1	*	*>B1	*	*>B1	*	*>B1	*	*>B1	*	*>B1	*
!	!	!	!	!	!	!	!	!	!	!	!	!	!	!	!	!	!	!	!	!LO:TX:a:Bi:t=1. 2.:problem= w źródle tak oznaczone zakończenie 1 volty	!	!	!	!	!	!	!
4E-\	.	4E-\	.	2E-\	Two-	.	2B-/	(<2A-\	-rze-	.	(<2d/	.	<(2f/	-ko-	.	8r	.	8r	.	8r	.	2d 2A-\	.	(>2f [<2E-/	.	1r	.
.	.	.	.	.	.	.	.	.	.	.	.	.	.	.	.	8A-/L	.	8d/L	.	8fL 8B-/	.	.	.	.	.	.	.
4r	.	4r	.	.	.	.	.	.	.	.	.	.	.	.	.	8A-/	.	8d/	.	8f 8B-/	.	.	.	.	.	.	.
.	.	.	.	.	.	.	.	.	.	.	.	.	.	.	.	8A-/J	.	8d/J	.	8fJ 8B-/	.	.	.	.	.	.	.
.	.	.	.	.	.	.	.	8qG\)	.	.	8qe-/)	.	8qe-/)	.	.	.	.	.	.	.	.	.	.	.	.	.	.
!	!	!	!	!	!	!	!	!	!	!	!	!	!	!	!	!	!	!	!	!	!	!	!	!LO:S:s=1:note:problem=note-level slur	!	!	!
!	!	!LO:TUP:a	!	!	!	!	!	!	!	!	!	!	!	!	!	!	!	!	!	!LO:TUP:a	!	!	!	!	!	!	!
8E-\	.	12E-\L	.	8E-\	-je.	.	8B-/	8G\	-nie.	.	8e-/	.	8e-/	-nu.	.	8G/	.	8e-/	.	12e-L 12B-/	.	8e- 8G\	.	8e-) 8E-/]	.	.	.
.	.	12B-\	.	.	.	.	.	.	.	.	.	.	.	.	.	.	.	.	.	12B-/	.	.	.	.	.	.	.
8r	.	.	.	8r	.	.	8r	8ryy	.	.	8r	.	8r	.	.	8r	.	8r	.	.	.	8r	.	8r	.	.	.
.	.	12An\J	.	.	.	.	.	.	.	.	.	.	.	.	.	.	.	.	.	12c/J	.	.	.	.	.	.	.
!	!	!LO:TUP:a	!	!	!	!	!	!	!	!	!	!	!	!	!	!	!	!	!	!LO:TUP:a	!	!	!	!	!	!	!
4r	.	12A-X\L	.	4r	.	.	4r	4ryy	.	.	4r	.	4r	.	.	4r	.	4r	.	12d/L	.	4r	.	4r	.	.	.
.	.	12G\	.	.	.	.	.	.	.	.	.	.	.	.	.	.	.	.	.	12e-/	.	.	.	.	.	.	.
.	.	12D\J	.	.	.	.	.	.	.	.	.	.	.	.	.	.	.	.	.	12f/J	.	.	.	.	.	.	.
*	*	*	*	*	*	*	*v	*v	*	*	*	*	*	*	*	*	*	*	*	*	*	*	*	*	*	*	*
=22:|!	=22:|!	=22:|!	=22:|!	=22:|!	=22:|!	=22:|!	=22:|!	=22:|!	=22:|!	=22:|!	=22:|!	=22:|!	=22:|!	=22:|!	=22:|!	=22:|!	=22:|!	=22:|!	=22:|!	=22:|!	=22:|!	=22:|!	=22:|!	=22:|!	=22:|!	=22:|!
!!LO:TX:a:Bi:t=2
*>B2	*	*>B2	*	*>B2	*	*	*>B2	*	*	*>B2	*	*>B2	*	*	*>B2	*	*>B2	*	*>B2	*	*>B2	*	*>B2	*	*>B2	*
*	*	*	*	*	*	*	*	*	*	*	*	*	*	*	*	*	*	*	*	*	*	*	*^	*	*	*
!	!	!	!	!	!	!	!	!	!	!	!	!	!	!	!	!	!	!	!LO:TX:a:Bi:t=3.:problem= w źródle tak oznaczone zakończenie 2 volty	!	!	!	!	!	!	!	!
4E-\	.	4E-\yy	.	1ryy	.	.	1ryy	.	.	1ryy	.	1ryy	.	.	8r	.	8r	.	8r	.	2d 2A-\	.	2f/	2E-/	.	2r	.
.	.	.	.	.	.	.	.	.	.	.	.	.	.	.	8A-/L	.	8d/L	.	8fL 8B-/	.	.	.	.	.	.	.	.
4r	.	4ryy	.	.	.	.	.	.	.	.	.	.	.	.	8A-/	.	8d/	.	8f 8B-/	.	.	.	.	.	.	.	.
.	.	.	.	.	.	.	.	.	.	.	.	.	.	.	8A-/J	.	8d/J	.	8fJ 8B-/	.	.	.	.	.	.	.	.
8E-\	.	8E-\yy	.	.	.	.	.	.	.	.	.	.	.	.	8G/	.	8e-/	.	8e- 8B-/	.	8e- 8G\	.	8e-/	4E-/	.	4r	.
8r	.	8ryy	.	.	.	.	.	.	.	.	.	.	.	.	8r	.	8r	.	8r	.	8r	.	8r	.	.	.	.
4r	.	4ryy	.	.	.	.	.	.	.	.	.	.	.	.	4r	.	4r	.	4r	.	4r	.	4r	4ryy	.	(>4b- 4g/	.
*	*	*	*	*	*	*	*	*	*	*	*	*	*	*	*	*	*	*	*	*	*	*	*v	*v	*	*	*
=23	=23	=23	=23	=23	=23	=23	=23	=23	=23	=23	=23	=23	=23	=23	=23	=23	=23	=23	=23	=23	=23	=23	=23	=23	=23	=23
*>C	*	*>C	*	*>C	*	*	*>C	*	*	*>C	*	*>C	*	*	*>C	*	*>C	*	*>C	*	*>C	*	*>C	*	*>C	*
1r	.	1ryy	.	1ryy	.	.	1ryy	.	.	1ryy	.	1ryy	.	.	1r	.	1r	.	1r	.	1r	.	1ryy	.	4a- 4f/	.
.	.	.	.	.	.	.	.	.	.	.	.	.	.	.	.	.	.	.	.	.	.	.	.	.	4g 4e-/	.
.	.	.	.	.	.	.	.	.	.	.	.	.	.	.	.	.	.	.	.	.	.	.	.	.	4f 4d/	.
.	.	.	.	.	.	.	.	.	.	.	.	.	.	.	.	.	.	.	.	.	.	.	.	.	4e- 4c/	.
=24	=24	=24	=24	=24	=24	=24	=24	=24	=24	=24	=24	=24	=24	=24	=24	=24	=24	=24	=24	=24	=24	=24	=24	=24	=24	=24
*	*	*	*	*	*	*	*	*	*	*	*	*	*	*	*	*	*	*	*	*	*^	*	*	*	*	*
2r	.	2ryy	.	1ryy	.	.	1ryy	.	.	1ryy	.	1ryy	.	.	2r	.	2r	.	2r	.	2r	2ryy	.	1ryy	.	4d 4B-/	.
.	.	.	.	.	.	.	.	.	.	.	.	.	.	.	.	.	.	.	.	.	.	.	.	.	.	4c 4A-/	.
4r	.	4ryy	.	.	.	.	.	.	.	.	.	.	.	.	4r	.	4r	.	4r	.	4r	4ryy	.	.	.	4B- 4G/)	.
!	!	!	!	!	!	!	!	!	!	!	!	!	!	!	!	!	!	!	!	!	!	!	!LO:DY:b:rj	!	!	!	!
(<4GG/	.	(<4GG/yy	.	.	.	.	.	.	.	.	.	.	.	.	(<4B-/	.	(>4B-/	.	(>4e-/	.	4B-/	4G\	pp	.	.	4r	.
*	*	*	*	*	*	*	*	*	*	*	*	*	*	*	*	*	*	*	*	*	*v	*v	*	*	*	*	*
=25	=25	=25	=25	=25	=25	=25	=25	=25	=25	=25	=25	=25	=25	=25	=25	=25	=25	=25	=25	=25	=25	=25	=25	=25	=25	=25
!	!	!	!	!	!	!	!	!	!	!	!	!	!	!	!	!	!	!	!	!	!LO:TX:a:t=P:problem=W źródle koślawy łuk	!	!	!	!	!
4AA-/	.	4AA-/yy	.	1ryy	.	.	1ryy	.	.	1ryy	.	1ryy	.	.	2c/	.	2A-/	.	4c/	.	(>2c 2A-\	.	2r	.	1r	.
4FF/	.	4FF/yy	.	.	.	.	.	.	.	.	.	.	.	.	.	.	.	.	&(<8g/L	.	.	.	.	.	.	.
.	.	.	.	.	.	.	.	.	.	.	.	.	.	.	.	.	.	.	8f/J	.	.	.	.	.	.	.
!	!	!	!	!	!	!	!	!	!	!	!	!	!	!	!	!	!	!	!	!	!	!LO:DY:a:rj	!	!	!	!
2BB-/	.	2BB-/yy	.	.	.	.	.	.	.	.	.	.	.	.	2B-/	.	4G/	.	4e-/&)	.	4B-\	pp	(>4g 4e-\	.	.	.
.	.	.	.	.	.	.	.	.	.	.	.	.	.	.	.	.	4A-/)	.	4d/	.	4d 4A-\)	.	4f 4B-\)	.	.	.
!!LO:PB:g=original
=26	=26	=26	=26	=26	=26	=26	=26	=26	=26	=26	=26	=26	=26	=26	=26	=26	=26	=26	=26	=26	=26	=26	=26	=26	=26	=26
*	*	*	*	*	*	*	*	*	*	*	*	*	*	*	*^	*	*	*	*	*	*	*	*	*	*	*
(>2E-\)	.	(<2EE-/)	.	1r;>	.	.	1r;>	.	.	1r;>	.	1r;>	.	.	(>2d/)	[>2B-\	.	(<2A-/	.	(<2f/)	.	(>2d &(>2A-\	.	(>2f 2E-/	.	1r;>	.
!	!	!	!	!	!	!	!	!	!	!	!	!	!	!	!	!	!	!	!	!	!	!LO:S:s=1:note:problem=note-level slur	!	!LO:S:s=1:note:problem=note-level slur	!	!	!
!	!	!	!	!	!	!	!	!	!	!	!	!	!	!	!	!	!	!	!	!	!	!LO:S:s=2:note:problem=note-level slur	!	!	!	!	!
4E-\)	.	4EE-/)	.	.	.	.	.	.	.	.	.	.	.	.	4e-\)	4B-\]	.	4G/)	.	4e-/)	.	4e-) 4G\&)	.	4e-) 4E-/	.	.	.
!	!	!LO:TX:b:Bi:t=ſeque Gloria.	!	!	!	!	!	!	!	!	!	!	!	!	!	!	!	!	!	!	!	!	!	!	!	!	!
4r;>	.	4r;>	.	.	.	.	.	.	.	.	.	.	.	.	4r;>	4ryy	.	4r;>	.	4r;>	.	4r;>	.	4r;>	.	.	.
*	*	*	*	*	*	*	*	*	*	*	*	*	*	*	*v	*v	*	*	*	*	*	*	*	*	*	*	*
==	==	==	==	==	==	==	==	==	==	==	==	==	==	==	==	==	==	==	==	==	==	==	==	==	==	==
*-	*-	*-	*-	*-	*-	*-	*-	*-	*-	*-	*-	*-	*-	*-	*-	*-	*-	*-	*-	*-	*-	*-	*-	*-	*-	*-
!!!system-decoration: {(s1,s2,s3)}{(s4,s5,s6)}{(s7,s8,s9,s10)}{(s11,s12)}
!!!RDF**kern: > = above
!!!RDF**kern: < = below
!!!RDF**kern: N = linked
!!!RDF**kern: i = editorial accidental
!!!RDF**kern: | = vertical stroke
!!!EED: Wojciech Jakubiak-Danek
!!!EEV: 2021-04-22
!!!ENC: Kamil Watkowski
!!!END: 2021-04-09
!!!YEC: Copyright 2022 Narodowy Instytut Fryderyka Chopina (https://polishscores.org)
!!!YEM: License CC-BY-4.0 (https://creativecommons.org/licenses/by/4.0)
